src/assets/icons/red_balance.svg

<svg width="87" height="29" viewBox="0 0 87 29" fill="none" xmlns="http://www.w3.org/2000/svg">
<path d="M86.4219 2L81.5055 5.67647H79.0473L76.589 2L73.5163 8.98529L69.2144 6.04412L64.298 3.10294L56.9234 13.3971L55.0797 7.14706L50.7779 27L41.5596 5.67647L41.5596 10.0882H38.4868V15.2353L32.9558 11.5588L31.1122 15.9706L26.8103 13.3971L16.9775 17.8088L12.0611 27L0.999136 17.8088" stroke="#D87558"/>
</svg>

<svg xmlns="http://www.w3.org/2000/svg" width="87" height="29" fill="none"><path stroke="#D87558" d="m86.422 2-4.916 3.676h-2.459L76.59 2l-3.073 6.985-4.302-2.94-4.916-2.942-7.375 10.294-1.843-6.25L50.778 27 41.56 5.676v4.412h-3.073v5.147l-5.531-3.676-1.844 4.412-4.302-2.574-9.832 4.412L12.06 27 1 17.809"/></svg>
